assets/icons/external-link-filled.svg

<?xml version="1.0" encoding="UTF-8" standalone="no"?>
<svg
   viewBox="0 0 24 24"
   version="1.1"
   id="svg4"
   sodipodi:docname="external-link-filled.svg"
   width="24"
   height="24"
   inkscape:version="1.2 (1:1.2.1+202207142221+cd75a1ee6d)"
   xmlns:inkscape="http://www.inkscape.org/namespaces/inkscape"
   xmlns:sodipodi="http://sodipodi.sourceforge.net/DTD/sodipodi-0.dtd"
   xmlns="http://www.w3.org/2000/svg"
   xmlns:svg="http://www.w3.org/2000/svg">
  <defs
     id="defs8" />
  <sodipodi:namedview
     id="namedview6"
     pagecolor="#ffffff"
     bordercolor="#666666"
     borderopacity="1.0"
     inkscape:pageshadow="2"
     inkscape:pageopacity="0.0"
     inkscape:pagecheckerboard="0"
     showgrid="true"
     inkscape:snap-page="true"
     inkscape:zoom="24.09375"
     inkscape:cx="10.977951"
     inkscape:cy="11.413748"
     inkscape:window-width="1920"
     inkscape:window-height="1043"
     inkscape:window-x="0"
     inkscape:window-y="0"
     inkscape:window-maximized="1"
     inkscape:current-layer="svg4"
     inkscape:showpageshadow="2"
     inkscape:deskcolor="#d1d1d1">
    <inkscape:grid
       type="xygrid"
       id="grid849" />
    <inkscape:grid
       type="xygrid"
       id="grid851"
       dotted="true"
       spacingx="0.5"
       spacingy="0.5"
       empspacing="10" />
  </sodipodi:namedview>
  <path
     id="path2"
     style="font-variant-ligatures:none;font-variant-position:normal;font-variant-caps:normal;font-variant-numeric:normal;font-variant-alternates:normal;font-feature-settings:normal;text-indent:0;text-decoration-line:none;text-decoration-style:solid;text-decoration-color:#000000;text-transform:none;shape-padding:0;isolation:auto;mix-blend-mode:normal;fill:#808080;stroke-width:1.25"
     d="m 21,2 c -1.046513,0.2351125 -2.104328,0.5089969 -3.173828,0.8183594 -1.076575,0.316425 -2.107438,0.6564343 -3.085938,1.0214844 l 1.855469,1.8574218 -4.949219,4.9492184 0.707032,0.707032 4.949218,-4.9492191 1.853516,1.8554687 c 0.369125,-1.0222 0.707072,-2.0550312 1.013672,-3.0976562 0.308475,-1.0703875 0.586128,-2.1244844 0.830078,-3.1621094 z" />
  <path
     id="path295"
     style="color:#000000;fill:#808080"
     d="M 5 6 C 4.1388936 6 3.372497 6.2954724 2.8339844 6.8339844 C 2.2954724 7.372497 2 8.1388936 2 9 L 2 15 L 2 18 C 2 18.861106 2.2954717 19.627501 2.8339844 20.166016 C 3.3724967 20.704526 4.1388933 21 5 21 L 9 21 L 15 21 C 15.107639 21 15.213941 20.995498 15.318359 20.986328 C 16.04929 20.922408 16.694815 20.637212 17.166016 20.166016 C 17.704526 19.627501 18 18.861106 18 18 L 18 12 L 18 9 C 18 8.820826 17.984097 8.6463356 17.958984 8.4765625 L 17.302734 7.8183594 L 16.859375 8.2617188 C 16.949816 8.4902217 17 8.7385665 17 9 L 17 18 C 17 19.107998 16.107998 20 15 20 L 5 20 C 3.8920022 20 3 19.107998 3 18 L 3 9 C 3 7.8920022 3.8920022 7 5 7 L 13.878906 7 L 14.878906 6 L 11 6 L 5 6 z M 6 8 C 4.8920022 8 4 8.8920022 4 10 L 4 17 C 4 18.107998 4.8920022 19 6 19 L 14 19 C 15.107998 19 16 18.107998 16 17 L 16 10 C 16 9.7385665 15.949816 9.4902217 15.859375 9.2617188 L 13.060547 12.060547 A 1.0001 1.0001 0 0 1 11.646484 12.060547 L 10.939453 11.353516 A 1.0001 1.0001 0 0 1 10.939453 9.9394531 L 12.878906 8 L 6 8 z " />
</svg>

<svg width="24" height="24" xmlns="http://www.w3.org/2000/svg"><path style="font-variant-ligatures:none;font-variant-position:normal;font-variant-caps:normal;font-variant-numeric:normal;font-variant-alternates:normal;font-feature-settings:normal;text-indent:0;text-decoration-line:none;text-decoration-style:solid;text-decoration-color:#000;text-transform:none;shape-padding:0;isolation:auto;mix-blend-mode:normal;fill:gray;stroke-width:1.25" d="M21 2a54.134 54.134 0 0 0-3.174.818A45.753 45.753 0 0 0 14.74 3.84l1.856 1.857-4.95 4.95.708.707 4.949-4.95 1.853 1.856a53.35 53.35 0 0 0 1.014-3.098c.308-1.07.586-2.124.83-3.162z"/><path style="color:#000;fill:gray" d="M5 6c-.861 0-1.628.295-2.166.834C2.295 7.372 2 8.139 2 9v9c0 .861.295 1.628.834 2.166C3.372 20.705 4.139 21 5 21h10c.108 0 .214-.005.318-.014.731-.064 1.377-.349 1.848-.82.539-.538.834-1.305.834-2.166V9c0-.18-.016-.354-.041-.523l-.656-.659-.444.444A2 2 0 0 1 17 9v9c0 1.108-.892 2-2 2H5c-1.108 0-2-.892-2-2V9c0-1.108.892-2 2-2h8.879l1-1H5zm1 2c-1.108 0-2 .892-2 2v7c0 1.108.892 2 2 2h8c1.108 0 2-.892 2-2v-7a2 2 0 0 0-.14-.738l-2.8 2.799a1 1 0 0 1-1.414 0l-.707-.707a1 1 0 0 1 0-1.415L12.88 8H6z"/></svg>
